svgs/sharp-regular/cloud-snow.svg

<svg xmlns="http://www.w3.org/2000/svg" viewBox="0 0 512 512"><!--! Font Awesome Pro 6.6.0 by @fontawesome - https://fontawesome.com License - https://fontawesome.com/license (Commercial License) Copyright 2024 Fonticons, Inc. --><path d="M368 128l0 48 48 0c26.5 0 48 21.5 48 48l0 48-48 0L96 272l-48 0 0-48c0-20.8 13.3-38.7 32-45.3l32-11.3 0-33.9 0-21.5c0-35.3 28.7-64 64-64c21.6 0 40.7 10.7 52.4 27.2l26.7 37.9 38.8-25.3c7.5-4.9 16.4-7.7 26.2-7.7c26.5 0 48 21.5 48 48zM0 320l48 0 48 0 320 0 48 0 48 0 0-48 0-48c0-53-43-96-96-96c0-53-43-96-96-96c-19.3 0-37.3 5.7-52.4 15.5C247.3 18.8 213.9 0 176 0C114.1 0 64 50.1 64 112l0 21.5C26.7 146.6 0 182.2 0 224l0 48 0 48zm88 32l-48 0 0 24 0 16-16 0L0 392l0 48 24 0 16 0 0 16 0 24 48 0 0-24 0-16 16 0 24 0 0-48-24 0-16 0 0-16 0-24zm192 32l-48 0 0 24 0 16-16 0-24 0 0 48 24 0 16 0 0 16 0 24 48 0 0-24 0-16 16 0 24 0 0-48-24 0-16 0 0-16 0-24zm192-8l0-24-48 0 0 24 0 16-16 0-24 0 0 48 24 0 16 0 0 16 0 24 48 0 0-24 0-16 16 0 24 0 0-48-24 0-16 0 0-16z"/></svg>

<svg xmlns="http://www.w3.org/2000/svg" viewBox="0 0 512 512"><!--! Font Awesome Pro 6.4.0 by @fontawesome - https://fontawesome.com License - https://fontawesome.com/license (Commercial License) Copyright 2023 Fonticons, Inc. --><path d="M368 128v48h48c26.5 0 48 21.5 48 48v48H416 96 48V224c0-20.8 13.3-38.7 32-45.3l32-11.3V133.5 112c0-35.3 28.7-64 64-64c21.6 0 40.7 10.7 52.4 27.2l26.7 37.9 38.8-25.3c7.5-4.9 16.4-7.7 26.2-7.7c26.5 0 48 21.5 48 48zM0 320H48 96 416h48 48V272 224c0-53-43-96-96-96c0-53-43-96-96-96c-19.3 0-37.3 5.7-52.4 15.5C247.3 18.8 213.9 0 176 0C114.1 0 64 50.1 64 112v21.5C26.7 146.6 0 182.2 0 224v48 48zm88 32H40v24 16H24 0v48H24 40v16 24H88V456 440h16 24V392H104 88V376 352zm192 32H232v24 16H216 192v48h24 16v16 24h48V488 472h16 24V424H296 280V408 384zm192-8V352H424v24 16H408 384v48h24 16v16 24h48V456 440h16 24V392H488 472V376z"/></svg>
